src/app/client/src/assets/images/ic_person_add.svg

<?xml version="1.0" encoding="UTF-8"?>
<svg width="24px" height="24px" viewBox="0 0 24 24" version="1.1" xmlns="http://www.w3.org/2000/svg" xmlns:xlink="http://www.w3.org/1999/xlink">
    <title>FC5E9E68-4C4D-40A5-864C-BB6A0537BA34</title>
    <g id="Page-1" stroke="none" stroke-width="1" fill="none" fill-rule="evenodd">
        <g id="Add-verified-member" transform="translate(-114.000000, -429.000000)">
            <g id="Group" transform="translate(16.000000, 417.000000)">
                <g id="Group-2" transform="translate(98.000000, 12.000000)">
                    <g id="ic_person_add">
                        <g id="Icon-24px">
                            <polygon id="Shape" points="0 0 24 0 24 24 0 24"></polygon>
                            <path d="M15,12 C17.21,12 19,10.21 19,8 C19,5.79 17.21,4 15,4 C12.79,4 11,5.79 11,8 C11,10.21 12.79,12 15,12 L15,12 Z M6,10 L6,7 L4,7 L4,10 L1,10 L1,12 L4,12 L4,15 L6,15 L6,12 L9,12 L9,10 L6,10 L6,10 Z M15,14 C12.33,14 7,15.34 7,18 L7,20 L23,20 L23,18 C23,15.34 17.67,14 15,14 L15,14 Z" id="Shape" fill="#FFFFFF"></path>
                        </g>
                    </g>
                </g>
            </g>
        </g>
    </g>
</svg>

<svg xmlns="http://www.w3.org/2000/svg" width="24" height="24" xmlns:v="https://vecta.io/nano"><path d="M15 12a4 4 0 1 0 0-8 4 4 0 1 0 0 8h0zm-9-2V7H4v3H1v2h3v3h2v-3h3v-2H6zm9 4c-2.67 0-8 1.34-8 4v2h16v-2c0-2.66-5.33-4-8-4h0z" fill="#fff" fill-rule="evenodd"/></svg>
